X: 17592
T: Hodgepodge, The
R: hornpipe
M: 4/4
K: Dmajor
FE|:(3DFA dz (3EGB ez|(3FAd fg fdAF|GBef gefd|(3efe (3dcB (3ABA (3GFE|
(3DFA dz (3EGB ez|(3FAd fg fdAF|GBeg feac|d2 f2 d2 FE:|
|:DFAd efge|dfaf egbg|dfaf bgeg|fdAd BGEG|
AFDG BGEc|dAFe geBG|FAdf geac|1 d2 f2 d2 FE:|2 d2 f2 d2||

